X:84
T:Tar Road to Sligo
M:6/8
L:1/8
S:D (x3)
R:Jig
K:D
"Bm"fdB Bcd | "A"ecA "G"BAG | "D"FGA "A"ABc | "D"dcd "A"efg | "Bm"fdB Bc
d | "A"ecA "G"BAG | "D"FGA "A"Aag |1 "A"fdc "D"d2e:|2 "A"fdc "D"d2B||
|: "D"Adf Adf | "G"~g3 "A"efg | "D"afd dcd | "Em"Bed "A"cBA |1 "D"Adf Ad
f | "G"~g3 "A"efg | "D"afd "Em"bge |
"A"edc "D"d2B:|2 "Bm"fdA "A"gec | "D"afd "G"bge | "D"~a3 "Em"bge | "A"ed
c "D"d2e ||
